!!!!SEGMENT: pl-cz--iii-50--014_brykner-jerzy--vesperae-confitebor.krn
!!!cenid: 17xx:856
!!!COM: Brykner, Jerzy
!!!COM-rismid: pe30025739
!!!CDT: 1705-1760
!!!CNT: Polish
!!!OTL: Vesperae – Confitebor
!!!PDT:
!!!AGN: Sacred; Vespers
!!!SMS-siglum: PL-CZ
!!!SMS-shelfmark: III-50
!!!SMS-shelfwork: 001-014 M
!!!NIFC-rismid: 300033583
!!!URL-scan: http://repozytorium.nifc.pl/skany/pl-cz-nut--iii-50
!!!ONB-nifc: UWAGA: części Vesperae: Dixit Dominus, Confitebor, Beatus vir, Laudate pueri, Laudate Dominum, In exitu, Laetatus sum, Nisi Dominus, Lauda Jerusalem, Credidi, In convertendo, Domine probasti me, Memento Domine David, Confitebor, De profundis, Beati omnes, Magnificat
!!!SMS-varianT:
**kern	**fba	**kern	**kern	**kern	**text	**dynam	**kern	**text	**kern	**kern
*part7	*part7	*part6	*part5	*part4	*part4	*part4	*part3	*part3	*part2	*part1
*staff7	*staff7	*staff6	*staff5	*staff4	*staff4	*staff4	*staff3	*staff3	*staff2	*staff1
*I"Organo.	*	*I"Violini Secundo.	*I"Violini Primo.	*I"Baſso.	*	*	*I"Canto.	*	*I"Clarino2do	*I"Clarino 1mo
*I'Org.	*	*I'Vn II	*I'Vn I	*I'B.	*	*	*I'C.	*	*	*
*clefF4	*	*clefG2	*clefG2	*clefF4	*	*	*clefC1	*	*	*
*k[b-a-e-]	*	*k[b-e-a-]	*k[b-e-a-]	*k[b-e-a-]	*	*	*k[b-e-a-]	*	*	*
*M4/4	*	*M4/4	*M4/4	*M4/4	*	*	*M4/4	*	*	*
*met(c)	*	*met(c)	*met(c)	*met(c)	*	*	*met(c)	*	*	*
=1	=1	=1	=1	=1	=1	=1	=1	=1	=1	=1
!	!	!	!	!	!	!	!LO:TX:a:t=1.	!	!	!
!LO:TX:a:t=Solo.	!	!	!	!	!	!	!LO:TX:rj:b:t=Confitebor.	!	!	!
!LO:TX:rj:b:t=Confitebor.	!	!LO:SIC:o:s:=:v:all \ right global	!LO:TX:rj:b::t=Confitebor.	!	!	!	!	!	!	!
!	!	!LO:TX:a:t=Confitebor	!	!	!	!	!	!	!	!
4E-\	.	1r	1r	8B-\	Con-	.	1r	.	1ryy	1ryy
.	.	.	.	8e-\	-fi-	.	.	.	.	.
4BB-/	.	.	.	16d\	-te-	.	.	.	.	.
.	.	.	.	16c\	-bor	.	.	.	.	.
.	.	.	.	16B-\	ti-	.	.	.	.	.
.	.	.	.	16A-\	-bi	.	.	.	.	.
4E-\	.	.	.	8.G\	Do-	.	.	.	.	.
.	.	.	.	16F\	-mi-	.	.	.	.	.
8G\L	6	.	.	16E-\	-ne	.	.	.	.	.
.	.	.	.	16E-\	in	.	.	.	.	.
8E-\J	.	.	.	16G\	to-	.	.	.	.	.
.	.	.	.	16B-\	-to	.	.	.	.	.
=2	=2	=2	=2	=2	=2	=2	=2	=2	=2	=2
!LO:TX:a:t=P:problem:mixed beam	!	!	!	!	!	!	!	!	!	!
8A-\L	.	2r	2r	8c\	cor-	.	2r	.	1ryy	1ryy
8G\	.	.	.	8B-\	-de	.	.	.	.	.
8F\	.	.	.	4A-\	me-	.	.	.	.	.
8BB-/J	.	.	.	.	.	.	.	.	.	.
8E-\L	.	16r	16r	8G\	-o,	.	8r	.	.	.
.	.	16ee-\LL	16bb-\LL	.	.	.	.	.	.	.
!LO:TX:a:t=T&colon;	!	!	!	!	!	!	!	!	!	!
8E-\	.	16ee-\	16bb-\	16E-\	quo-	.	16ee-\	Quo-	.	.
.	.	16ee-\JJ	16bb-\JJ	16E-\	-ni-	.	16ee-\	-ni-	.	.
8G\	.	16ee-\LL	16bb-\LL	8G\	-a(m)	.	8ee-\	-am	.	.
.	.	16ee-\	16bb-\	.	.	.	.	.	.	.
8E-\J	.	16ee-\	16bb-\	8E-\	au-	.	8ee-\	au-	.	.
.	.	16ee-\JJ	16bb-\JJ	.	.	.	.	.	.	.
=3	=3	=3	=3	=3	=3	=3	=3	=3	=3	=3
8A-\L	6 5	16ee-\LL	16ccc\LL	8A-\	-di-	.	16ee-\LL	-di-	1ryy	1ryy
.	.	16ee-\	16ccc\	.	.	.	16gg\JJ	.	.	.
8F\	.	16ee-\	16aa-\	8F\	-sti	.	16ff\LL	-sti	.	.
.	.	16ee-\JJ	16aa-\JJ	.	.	.	16ee-\JJ	.	.	.
8B-\	.	16dd\LL	16ff\LL	8B-\	ver-	.	8dd\	ver-	.	.
.	.	16dd\	16ff\	.	.	.	.	.	.	.
8A-\J	.	16dd\	16aa-\	8A-\	-ba	.	8dd\	-ba	.	.
.	.	16dd\JJ	16aa-\JJ	.	.	.	.	.	.	.
!	!	!	!	!LO:PB:g=original	!	!	!	!	!	!
!	!	!	!	!	!	!	!LO:TX:a:t=t.	!	!	!
8G\L	6 5	16dd\LL	16bb-\LL	8G\	o-	.	16.dd\LL	o-	.	.
.	.	16dd\	16bb-\	.	.	.	.	.	.	.
!	!	!	!	!	!	!	!LO:N:vis=32	!	!	!
.	.	.	.	.	.	.	(64cc\LL	.	.	.
!	!	!	!	!	!	!	!LO:N:vis=32	!	!	!
.	.	.	.	.	.	.	64dd\JJJJ)	.	.	.
8E-\	.	16dd\	16gg\	8E-\	-ris	.	16ee-\LL	-ris	.	.
.	.	16dd\JJ	16gg\JJ	.	.	.	16dd\JJ	.	.	.
8A-\	.	16cc\LL	16ee-\LL	16A-\	me-	.	16cc\	me-	.	.
.	.	16cc\	16ee-\	16A-\	-i,	.	16cc\	-i,	.	.
8G\J	.	16cc\	16gg\	16G\	in	.	16cc\	in	.	.
.	.	16cc\JJ	16gg\JJ	16G\	con-	.	16cc\	con-	.	.
=4	=4	=4	=4	=4	=4	=4	=4	=4	=4	=4
8F\L	6 5	16cc\LL	16aa-\LL	8F\	-spe-	.	8dd\	-spe-	1ryy	1ryy
.	.	16cc\	16aa-\	.	.	.	.	.	.	.
8D\	.	16cc\	16ff\	8D\	-ctu	.	8dd\	-ctu	.	.
.	.	16cc\JJ	16ff\JJ	.	.	.	.	.	.	.
8G\	.	16b-/LL	16dd\LL	8G\	An-	.	8b-\	An-	.	.
.	.	16b-/	16dd\	.	.	.	.	.	.	.
8F\J	.	16b-/	16ff\	8F\	-ge-	.	8b-\	-ge-	.	.
.	.	16b-/JJ	16ff\JJ	.	.	.	.	.	.	.
!	!	!	!LO:LB:g=original	!	!	!	!	!	!	!
8E-\L	6 5	16b-/LL	16gg\LL	8E-\	-lo-	.	16b-\LL	-lo-	.	.
.	.	16b-/	16gg\	.	.	.	16g\JJ	.	.	.
!	!	!	!	!	!	!	!LO:LB:g=original	!	!	!
8C\	.	16b-/	16ee-\	8C/	-ru(m)	.	16a-\LL	-rum	.	.
.	.	16b-/JJ	16ee-\JJ	.	.	.	16b-\JJ	.	.	.
8F\	.	16a-/LL	16cc\LL	8F\	psal-	.	8a-\	psal-	.	.
.	.	16a-/	16cc\	.	.	.	.	.	.	.
8E-\J	.	16a-/	16ee-\	8E-\	-lam	.	8a-\	-la(m)	.	.
.	.	16a-/JJ	16ee-\JJ	.	.	.	.	.	.	.
=5	=5	=5	=5	=5	=5	=5	=5	=5	=5	=5
8D/L	6 5	16a-/LL	16ff\LL	8D\	ti-	.	8a-\	ti-	1ryy	1ryy
.	.	16a-/	16ff\	.	.	.	.	.	.	.
8BB-/J	.	16a-/	16dd\	8BB-/	-bi,	.	16b-\LL	-bi,	.	.
.	.	16a-/JJ	16dd\JJ	.	.	.	16a-\JJ	.	.	.
16E-\LL	.	16g/LL	16b-\LL	16E-\LL	a-	.	(16g\LL	a-	.	.
16F\	.	16g/	16a-\	16F\JJ	.	.	16a-\)	.	.	.
16G\	.	16b-/	16b-\	16G\LL	-do-	.	(16b-\	-do-	.	.
!	!	!LO:SIC:s:=:v:custosf	!	!	!	!	!	!	!	!
16A-\JJ	.	16b-/JJ	16cc\JJ	16A-\JJ	.	.	16cc\JJ)	.	.	.
!	!	!LO:LB:g=original	!	!	!	!	!	!	!	!
16B-\LL	.	8f/L	16dd\LL	8B-\	-ra-	.	8dd\	-ra-	.	.
16c\	.	.	16dd\	.	.	.	.	.	.	.
16d\	.	8b-/J	16ee-\	16c,\	-bo	.	16ee-\	-bo	.	.
16B-\JJ	.	.	16ff\JJ	16d\	ad	.	16ff\	ad	.	.
!LO:LB:g=original	!	!	!	!	!	!	!	!	!	!
8e-\L	.	8b-\L	8gg\L	8e-\	te(m)-	.	8gg\	tem-	.	.
8B-\J	.	8dd\J	8ff\J	8B-\	-plu(m)	.	8ff\	-plu(m)	.	.
=6	=6	=6	=6	=6	=6	=6	=6	=6	=6	=6
16G\LL	6	16b-\LL	16ee-\LL	16G\LL	Sanc-	.	4.ee-\	Sanc-	1ryy	1ryy
16F\	.	16b-\	16ee-\	16F\	.	.	.	.	.	.
16G\	.	16ee-\	16ee-\	16G\	.	.	.	.	.	.
16E-\JJ	.	16ee-\JJ	16ee-\JJ	16E-\JJ	.	.	.	.	.	.
16A-\LL	6 5	16ee-\LL	16ff\LL	16A-\LL	.	.	.	.	.	.
16G\	.	16ee-\	16ff\	16G\	.	.	.	.	.	.
16A-\	.	16ee-\	16ff\	(16A-\	-tum	.	8ff\	-tu(m)	.	.
16F\JJ	.	16ee-\JJ	16ff\JJ	16F,\JJ)	.	.	.	.	.	.
!LO:TX:a:t=P:problem:mixed beam	!	!	!	!	!	!	!	!	!	!
8B-\L	.	8dd\L	8ff\L	8B-\	tu-	.	8dd\	tu-	.	.
8BB-/J	.	8dd\J	8ff\J	8B-\	-u(m),	.	8dd\	-um,	.	.
!	!	!	!	!LO:LB:g=original	!	!	!	!	!	!
16r	.	16r	16r	16r	.	.	16r	.	.	.
16G\LL	.	16b-\LL	16b-\LL	16G\	et	.	16b-\	et	.	.
16A-\	.	16cc\	16cc\	16A-\	con-	.	16cc\	con-	.	.
16B-\JJ	.	16dd\JJ	16dd\JJ	16B-\	-fi-	.	16dd\	-fi-	.	.
=7	=7	=7	=7	=7	=7	=7	=7	=7	=7	=7
8c\L	.	8ee-\L	8ee-\L	8c\	-te-	.	8ee-\	-te-	1ryy	1ryy
8A-\	.	8ff\	[8aa-\J	8A-\	-bor	.	8ff\	-bor	.	.
8B-\	.	8dd\	16aa-\LL]	8B-\	no-	.	8dd\	No-	.	.
.	.	.	16ff\	.	.	.	.	.	.	.
8E-\J	.	8ee-\J	16gg\	16E-\	-mi-	.	16ee-\	-mi-	.	.
.	.	.	16ee-\JJ	16E-\	-ni	.	16ee-\	-ni	.	.
!	!	!	!LO:LB:g=original	!	!	!	!LO:LB:g=original	!	!	!
*	*	*	*2\right	*	*	*	*	*	*	*
2BB-/	4	8ee-\L	2ff\	2BB-/	tu-	.	(4ee-\	tu-	.	.
.	.	16dd\L	.	.	.	.	.	.	.	.
.	3	16cc\JJ	.	.	.	.	.	.	.	.
.	.	4dd\	.	.	.	.	4dd\)	.	.	.
=8	=8	=8	=8	=8	=8	=8	=8	=8	=8	=8
!LO:TX:a:t=Solo.	!	!	!	!	!	!	!	!	!	!
4E-\	.	8ee-\L	8ee-\L	4E-\	-o.	.	4ee-\	-o	1ryy	1ryy
.	.	16dd\L	16dd\L	.	.	.	.	.	.	.
.	.	16cc\JJ	16cc\JJ	.	.	.	.	.	.	.
8r	.	16b-/LL	16b-/LL	4r	.	.	4r	.	.	.
.	.	16a-/	16a-/	.	.	.	.	.	.	.
8E-\	.	16g/	16g/	.	.	.	.	.	.	.
.	.	16f/JJ	16f/JJ	.	.	.	.	.	.	.
!LO:TX:a:t=P:problem:mixed beam	!	!	!	!	!	!	!	!	!	!
8E-\L	.	8e-/L	8e-/L	2r	.	.	2r	.	.	.
8A-\	.	8e-/	16cc/L	.	.	.	.	.	.	.
.	.	.	16a-/JJ	.	.	.	.	.	.	.
8B-\	.	8e-/	4f/	.	.	.	.	.	.	.
8BB-/J	.	8d/J	.	.	.	.	.	.	.	.
=9	=9	=9	=9	=9	=9	=9	=9	=9	=9	=9
!	!	!	!	!LO:TX:a:t=3.	!	!	!	!	!	!
1E-\	.	4e-/	4e-/	0r	.	.	8b-\	Su-	1ryy	1ryy
.	.	.	.	.	.	.	16cc\	-per	.	.
.	.	.	.	.	.	.	16dd\	mi-	.	.
.	.	4r	4r	.	.	.	8ee-\	-se-	.	.
.	.	.	.	.	.	.	8b-\	-ri-	.	.
.	.	2r	2r	.	.	.	8g\	-cor-	.	.
.	.	.	.	.	.	.	16a-\	-di-	.	.
.	.	.	.	.	.	.	16b-\	-a	.	.
.	.	.	.	.	.	.	8e-/	tu-	.	.
.	.	.	.	.	.	.	8e-/	-a,	.	.
=10	=10	=10	=10	=10	=10	=10	=10	=10	=10	=10
4D\	.	4r	4r	.	.	.	8r	.	1ryy	1ryy
.	.	.	.	.	.	.	8b-\	et	.	.
4.E-\	n 3	8r	8r	.	.	.	16g/LL	ve-	.	.
.	.	.	.	.	.	.	16e-/JJ	.	.	.
.	.	8g/	8b-/	.	.	.	16f/LL	-ri-	.	.
.	4 2	.	.	.	.	.	16g/JJ	.	.	.
.	.	8an/L	8cc\L	.	.	.	16an\LL	-ta-	.	.
.	.	.	.	.	.	.	16b-\JJ	.	.	.
8D\	6	8b-/	8dd\J	.	.	.	16cc\LL	-te	.	.
.	.	.	.	.	.	.	16dd\JJ	.	.	.
4C/	7	8b-/	4ee-\	.	.	.	4ee-\	tu-	.	.
!	!	!LO:SIC:s:=:v:custosb-	!	!	!	!	!	!	!	!
.	6\	8a/J	.	.	.	.	.	.	.	.
!LO:PB:g=original	!	!LO:LB:g=original	!	!	!	!	!	!	!	!
=11	=11	=11	=11	=11	=11	=11	=11	=11	=11	=11
4BB-/	.	8b-/L	8dd\L	1r	.	.	4dd\	-a,	1ryy	1ryy
.	.	8f/	8b-\	.	.	.	.	.	.	.
8B-\L	.	8f/	8b-\	.	.	.	8r	.	.	.
8A-\J	.	8f/J	8b-\J	.	.	.	16b-\	quo-	.	.
.	.	.	.	.	.	.	16cc\	-ni-	.	.
!	!	!	!	!	!	!	!LO:PB:g=original	!	!	!
*2\right	*	*	*	*	*	*	*	*	*	*
2G\	-6 5	8e-/L	8b-\L	.	.	.	8dd-X\	-am	.	.
.	.	8e-/	8b-\	.	.	.	8dd-\	mag-	.	.
.	.	8e-/	8b-\	.	.	.	8dd-\	-ni-	.	.
.	.	8e-/J	8b-\J	.	.	.	16cc\LL	-fi-	.	.
.	.	.	.	.	.	.	16b-\JJ	.	.	.
=12	=12	=12	=12	=12-	=12	=12	=12	=12	=12	=12
4A-\	.	8e-/L	8cc\L	2r	.	.	8cc\	-câs-	1ryy	1ryy
.	.	8e-/J	8a-\J	.	.	.	8a-\	-ti	.	.
4D-X\	.	4r	4r	.	.	.	16ff\	su-	.	.
.	.	.	.	.	.	.	16ff\	-per	.	.
.	.	.	.	.	.	.	16ee-\	om-	.	.
.	.	.	.	.	.	.	16dd-X\	-ne	.	.
4E-\	.	2r	2r	4r	.	.	8ee-\	No-	.	.
.	.	.	.	.	.	.	8g\	-me(n)	.	.
4C/	6.	.	.	8E-\	In	.	[4a-\	San-	.	.
.	.	.	.	8E-\	qua-	.	.	.	.	.
!	!	!	!LO:LB:g=original	!	!	!	!	!	!	!
=13	=13	=13	=13	=13	=13	=13	=13	=13	=13	=13
!	!	!	!	!	!	!	!LO:N:xstem:cue	!	!	!
4D-X\	.	2r	2r	8F\	-cun-	.	8a-\]	.	1ryy	1ryy
.	.	.	.	8F\	-q(ue)	.	16g/LL	-ctu(m)	.	.
.	.	.	.	.	.	.	16f/JJ	.	.	.
4E-\	.	.	.	16E-\LL	di-	.	4g/	tu-	.	.
.	.	.	.	16F\JJ	.	.	.	.	.	.
.	.	.	.	16E-\LL	-e	.	.	.	.	.
.	.	.	.	16D-X\JJ	.	.	.	.	.	.
4AA-/	.	4r	4r	8C/	in-	.	4a-\	-um.	.	.
.	.	.	.	8E-\	-vo-	.	.	.	.	.
8A-\L	.	8e-/L	16cc\LL	8A-\	-ca-	.	4r	.	.	.
.	.	.	16dd\	.	.	.	.	.	.	.
8G\J	.	8e-/J	16b-\	16G\	-ve-	.	.	.	.	.
.	.	.	16cc\JJ	16G\	-ro	.	.	.	.	.
=14	=14	=14	=14	=14	=14	=14	=14	=14	=14	=14
!LO:TX:a:t=P:problem:mixed beam	!	!	!	!	!	!	!LO:TX:a:t=2.	!	!	!
8F\L	7	8a-/L	8dd\L	8F\	te	.	0r	.	1ryy	1ryy
8E-\	.	8g/J	8ee-\	8E-\	ex-	.	.	.	.	.
8F\	6	4a-/	8ee-\	8A-\	-au-	.	.	.	.	.
8BB-/J	.	.	8dd\J	16A-\	-di-	.	.	.	.	.
.	.	.	.	16A-\	-es	.	.	.	.	.
!	!	!	!	!LO:LB:g=original	!	!	!	!	!	!
4E-\	.	16g/LL	4ee-\	16G\	me,	.	.	.	.	.
.	.	16g/	.	16E-\	mul-	.	.	.	.	.
.	.	16a-/	.	16F\	-ti-	.	.	.	.	.
.	.	16b-/JJ	.	16G\	-pli-	.	.	.	.	.
16r	.	8cc\L	16r	8A-\	-ca-	.	.	.	.	.
16AA-/LL	.	.	16cc\LL	.	.	.	.	.	.	.
16BB-/	.	8cc\J	16dd\	16B-\	-bis	.	.	.	.	.
16C/JJ	.	.	16ee-\JJ	16c\	in	.	.	.	.	.
=15	=15	=15	=15	=15	=15	=15	=15	=15	=15	=15
8BB-/L	.	8.b-/L	8ff\L	8D\	a-	.	.	.	1ryy	1ryy
8BB-/	.	.	16gg\L	16D\	-ni-	.	.	.	.	.
.	.	16a-/Jk	16aa-\JJ	16D\	-ma	.	.	.	.	.
8C/	.	8g/L	8ee-\L	8E-\	me-	.	.	.	.	.
8AA-/J	.	8cc/J	16dd\L	16AA-/	-a	.	.	.	.	.
.	.	.	16cc\JJ	16AA-/	vir-	.	.	.	.	.
2BB-/	4	4g/	4ee-\	2BB-/	-tu-	.	.	.	.	.
.	3	4f/	4dd\	.	.	.	.	.	.	.
=16	=16	=16	=16	=16	=16	=16	=16	=16	=16	=16
8E-\L	.	8e-/L	8ee-\L	8E-\	-tem	.	8r	.	1ryy	1ryy
!LO:TX:a:t=T&colon;	!	!	!	!	!	!	!	!	!	!
8C\	.	8g/J	16ee-\L	8C/	Con-	.	16ee-\LL	Con-	.	.
.	.	.	16ff\JJ	.	.	.	16ff\JJ	.	.	.
8E-\	.	8cc\L	8gg\L	8E-\	-fi-	.	8gg\	-fi-	.	.
8G\J	n.	8bn\J	8dd\J	8G\	-te-	.	8dd\	-te-	.	.
8E-\L	6	8cc\L	8ee-\L	8E-\	-an-	.	8ee-\	-an-	.	.
8C\	.	8ee-\J	8gg\J	8C/	-tur	.	8ee-\	-tur	.	.
8c\	.	8.ee-\L	8.gg\L	8c\	ti-	.	8.ee-\	ti-	.	.
8c\J	.	.	.	8c\	-bi	.	.	.	.	.
.	.	16dd\Jk	16ff\Jk	.	.	.	16dd\	-bi	.	.
!	!	!	!	!	!	!	!LO:LB:g=original	!	!	!
=17	=17	=17	=17	=17	=17	=17	=17	=17	=17	=17
8.c\L	.	8.cc\L	8.ee-\L	8.c\	Do-	.	8.cc\	Do-	1ryy	1ryy
!	!	!LO:SIC:s:=:v:custosee-	!	!	!	!	!	!	!	!
16B-\Jk	.	16dd\Jk	16dd\Jk	16B-\	-mi-	.	16cc\	-mi-	.	.
!LO:LB:g=original	!	!LO:LB:g=original	!	!	!	!	!	!	!	!
!	!	!	!	!LO:SIC:s=4A-	!	!	!	!	!	!
8A-\L	.	8ee-\L	8cc\L	4A-\	-ne	.	8cc\	-ne	.	.
!	!	!	!LO:SIC:s:=:v:custosgg	!	!	!	!	!	!	!
8F\J	.	16dd\L	8aa-\J	.	.	.	16dd\	om-	.	.
.	.	16cc\JJ	.	.	.	.	16dd\	-nes	.	.
!	!	!	!LO:LB:g=original	!	!	!	!	!	!	!
!	!	!	!	!LO:SIC:s=16F	!	!	!	!	!	!
8G\L	n	8bn\L	8gg\L	8F\	om-	.	8bn\	Re-	.	.
!	!	!	!	!LO:SIC:s=16F	!	!	!	!	!	!
8E-\J	6.	8cc\	8gg\J	8F\	-nes	.	8cc\	-ges	.	.
!	!	!	!	!LO:SIC:o:s:=:v:od tego miejsca do t. 19 wszystko w B powinno być przesunięte o pół taktu do tyłu	!	!	!	!	!	!
4D\	7	8cc\	4ff\	8G\	Re-	.	8cc\L	ter-	.	.
.	6\	8b\J	.	8E-\	-ges	.	8bn\J	.	.	.
!	!	!	!	!LO:LB:g=original	!	!	!	!	!	!
=18	=18	=18	=18	=18	=18	=18	=18	=18	=18	=18
!LO:TX:a:t=P:problem:mixed beam	!	!	!	!	!	!	!	!	!	!
8C/L	.	8cc\L	8ee-\L	4D/	ter-	.	8cc\	-rae,	1ryy	1ryy
8c\	.	8cc\	8ee-\	.	.	.	16ee-\	qui-	.	.
.	.	.	.	.	.	.	16ee-\	-a	.	.
8A-\	6 5	8ff\	8cc\	8C/	-rae,	.	8ee-\	au-	.	.
8F\J	.	8ff\J	8aa-\J	16c\	qui-	.	8ee-\	-di-	.	.
.	.	.	.	16c\	-a	.	.	.	.	.
8D\L	6	8ff\L	8ff\L	8A-\	au-	.	8dd\	-e-	.	.
8B-\	6\	8ff\	8dd\	8F\	-di-	.	8dd\	-runt	.	.
8G\	6 5.	8ee-\	8b-\	8D\	-e-	.	8dd\	om-	.	.
8E-\J	.	8ee-\J	8gg\J	8B-\	-runt	.	16dd\	-ni-	.	.
.	.	.	.	.	.	.	16dd\	-a	.	.
=19	=19	=19	=19	=19	=19	=19	=19	=19	=19	=19
!LO:TX:a:t=P:problem:mixed beam	!	!	!	!	!	!	!	!	!	!
8C/L	6	8ee-\L	8ee-\L	8G\	om-	.	8cc\	ver-	1ryy	1ryy
8A-\	6	8dd\J	8ff\J	16E-\	-ni-	.	8cc\	-ba	.	.
.	.	.	.	16E-\	-a	.	.	.	.	.
8G\	7 n	8dd\L	16ff\LL	8C/	ver-	.	8bn\	o-	.	.
.	.	.	16dd\	.	.	.	.	.	.	.
8C/J	.	8cc\J	16ee-\	8A-\	-ba	.	8cc\	-ris	.	.
.	.	.	16cc\JJ	.	.	.	.	.	.	.
2GG/	4	4cc\	4ee-\	8G\	o-	.	(4cc\	me-	.	.
.	.	.	.	8C/	-ris	.	.	.	.	.
!	!	!	!	!LO:SIC:s=2G (patrz komentarz w t. 17)	!	!	!	!	!	!
.	n.	4bn/	4dd\	4GG/	me-	.	4bn\)	.	.	.
=20	=20	=20	=20	=20	=20	=20	=20	=20	=20	=20
!LO:TX:a:t=P:problem:mixed beam	!	!	!	!	!	!	!	!	!	!
!LO:TX:a:t=S&colon;	!	!	!	!	!	!	!LO:SIC:s:=:v:custoscc	!	!	!
8C/L	.	4cc\	4cc\	4C/	-i.	.	8cc\	-i.	1ryy	1ryy
!	!	!	!	!	!	!	!LO:LB:g=original	!	!	!
8c\	.	.	.	.	.	.	8cc\	Et	.	.
8Bn\	6	4r	4r	4r	.	.	8dd\	can-	.	.
8G\J	.	.	.	.	.	.	16cc,\	-tent	.	.
.	.	.	.	.	.	.	16dd\	in	.	.
!LO:TX:a:t=P:problem:mixed beam	!	!	!	!	!	!	!	!	!	!
8c\L	.	2r	2r	2r	.	.	8ee-\	vi-	.	.
!	!	!	!	!	!	!	!LO:SIC:l:s=is	!	!	!
8F\	6	.	.	.	.	.	16dd\LL	-js	.	.
.	.	.	.	.	.	.	16cc\JJ	.	.	.
8G\	.	.	.	.	.	.	8.bn\	Do-	.	.
8GG/J	n.	.	.	.	.	.	.	.	.	.
.	.	.	.	.	.	.	16b\	-mi-	.	.
=21	=21	=21	=21	=21	=21	=21	=21	=21	=21	=21
4C/	.	00r	00r	4r	.	.	8cc\	-ni,	1ryy	1ryy
.	.	.	.	.	.	.	16ee-\	quo-	.	.
.	.	.	.	.	.	.	16dd\	-ni-	.	.
4A-\	.	.	.	8r	.	.	8cc\	-am	.	.
.	.	.	.	16c\	Quo-	.	4ff\	mag-	.	.
.	.	.	.	16B-\	-ni-	.	.	.	.	.
4F\	.	.	.	8A-\	-am	.	.	.	.	.
.	.	.	.	8c\	ex-	.	16ee-\	-na	.	.
.	.	.	.	.	.	.	16ee-\	e(st)	.	.
4BB-/	.	.	.	8F\	-cel-	.	8dd\L	glo-	.	.
.	.	.	.	8G\	-sus	.	[8ee-\J	.	.	.
=22	=22	=22	=22	=22	=22	=22	=22	=22	=22	=22
8C/L	6	.	.	8.A-\	Do-	.	8ee-\L]	.	1ryy	1ryy
8D/J	.	.	.	.	.	.	8dd\J	.	.	.
.	.	.	.	16A-\	-mi-	.	.	.	.	.
4E-\	.	.	.	8G\	-n(us),	.	8cc\	.	.	.
.	.	.	.	16G\	et	.	16b-\	-ri-	.	.
.	.	.	.	16G\	hu-	.	16b-\	-a	.	.
!	!	!	!	!LO:LB:g=original	!	!	!	!	!	!
!	!	!	!	!	!	!LO:DY:a	!	!	!	!
8F\L	.	.	.	8F\	-mi-	f	8a-\L	Do-	.	.
8E-\J	.	.	.	16E-\	-li-	.	8g\J	.	.	.
.	.	.	.	16E-\	-a	.	.	.	.	.
!LO:TX:a:t=P:problem:mixed beam	!	!	!	!	!	!	!	!	!	!
8F\L	.	.	.	8.E-\	re-	.	8.a-\	.	.	.
8BB-/J	.	.	.	.	.	.	.	.	.	.
.	.	.	.	16D\	-spi-	.	16a-\	-mi-	.	.
!LO:LB:g=original	!	!	!	!	!	!	!	!	!	!
=23	=23	=23	=23	=23	=23	=23	=23	=23	=23	=23
4E-\	.	.	.	16E-\	-cit,	.	4g\	-ni.	1ryy	1ryy
.	.	.	.	16E-\LL	et	.	.	.	.	.
.	.	.	.	16F\	.	.	.	.	.	.
.	.	.	.	16G\JJ	.	.	.	.	.	.
4AA-/	.	.	.	8C/	al-	.	4r	.	.	.
.	.	.	.	8C/	-ta	.	.	.	.	.
4FF/	.	.	.	16r	.	.	2r	.	.	.
*	*	*	*	*	*ij	*	*	*	*	*
.	.	.	.	16A-\LL	et	.	.	.	.	.
.	.	.	.	16B-\	.	.	.	.	.	.
.	.	.	.	16c\JJ	.	.	.	.	.	.
4BB-/	.	.	.	8D\	al-	.	.	.	.	.
.	.	.	.	16D\	-ta	.	.	.	.	.
*	*	*	*	*	*Xij	*	*	*	*	*
.	.	.	.	16D\	a	.	.	.	.	.
!	!	!	!	!	!	!	!LO:LB:g=original	!	!	!
=24	=24	=24	=24	=24	=24	=24	=24	=24	=24	=24
8C/L	.	.	.	8E-\	lon-	.	8r	.	1ryy	1ryy
8AA-/J	.	.	.	16AA-/	-gè	.	8cc\	Si	.	.
.	.	.	.	16AA-/	co-	.	.	.	.	.
4BB-/	9	.	.	4BB-/	-gno-	.	8cc\	am-	.	.
.	8	.	.	.	.	.	16b-\LL	-bu-	.	.
.	7	.	.	.	.	.	16a-\JJ	.	.	.
4.E-\	.	.	.	4E-\	-scit,	.	8.g/	-la-	.	.
.	.	.	.	.	.	.	16f/	-ve-	.	.
.	.	.	.	4r	.	.	8e-/	-ro	.	.
8E-\	.	.	.	.	.	.	8g/	in	.	.
=25	=25	=25	=25	=25	=25	=25	=25	=25	=25	=25
4C/	6\	00r	00r	2r	.	.	8an\	me-	1ryy	1ryy
.	.	.	.	.	.	.	16a\	-di-	.	.
.	.	.	.	.	.	.	16a\	-o	.	.
4BB-/	-	.	.	.	.	.	16b-\	tri-	.	.
.	.	.	.	.	.	.	16b-\	-bu-	.	.
.	.	.	.	.	.	.	16cc\	-la-	.	.
.	.	.	.	.	.	.	16dd-X\	-ti-	.	.
4AAn/	6 5.	.	.	4r	.	.	8ee-\	-o-	.	.
.	.	.	.	.	.	.	16dd-X\	-nis	.	.
.	.	.	.	.	.	.	16cc\	vi-	.	.
!LO:TX:a:t=P:problem:mixed beam	!	!	!	!	!	!	!	!	!	!
8BB-/L	-	.	.	16r	.	.	8dd-\	-vi-	.	.
.	.	.	.	16F\	et	.	.	.	.	.
8F\J	n	.	.	16F\	ſu-	.	8an\	-fi-	.	.
.	.	.	.	16E-\	-per	.	.	.	.	.
=26	=26	=26	=26	=26	=26	=26	=26	=26	=26	=26
8G-X\L	.	.	.	8D-X\	i-	.	8b-\L	-ca-	1ryy	1ryy
8E-\J	.	.	.	16G-X\	-ram	.	16a-\L	.	.	.
.	.	.	.	16G-\	i-	.	16g\JJ	.	.	.
4F\	n	.	.	8.F\	-ni-	.	8.an\	.	.	.
!	!	!	!	!LO:LB:g=original	!	!	!	!	!	!
.	.	.	.	16E-\	-mi-	.	16b-\	-bis	.	.
4BB-/	-	.	.	8D-X\	-co-	.	4b-\	me.	.	.
.	.	.	.	16F\	-ru(m)	.	.	.	.	.
.	.	.	.	16F\	me-	.	.	.	.	.
[4D-X/	6	.	.	8.B-\	-o-	.	4r	.	.	.
.	.	.	.	16A-\	-ru(m)	.	.	.	.	.
=27	=27	=27	=27	=27	=27	=27	=27	=27	=27	=27
!	!	!	!	!	!	!	!LO:TX:a:t=1	!	!	!
8D-X/L]	4 2	.	.	8G\	ex-	.	1r	.	1ryy	1ryy
[8C/	x 6	.	.	8A-\	-ten-	.	.	.	.	.
8C/]	4 2	.	.	8F\	-di-	.	.	.	.	.
[8BB-/J	x 6	.	.	8G\	-sti	.	.	.	.	.
8BB-/L]	n4 2	.	.	8En\	ma-	.	.	.	.	.
8AA-/J	x 6	.	.	8F\	-nu(m)	.	.	.	.	.
4GG/	x 7	.	.	(8F\L	tu-	.	.	.	.	.
.	x 6\	.	.	8E\J)	.	.	.	.	.	.
!	!	!	!	!	!	!	!LO:LB:g=original	!	!	!
=28	=28	=28	=28	=28	=28	=28	=28	=28	=28	=28
!LO:TX:a:t=P:problem:mixed beam	!	!	!	!	!	!	!	!	!	!
8FF/L	.	.	.	8F\	-am,	.	2r	.	1ryy	1ryy
8F\J	.	.	.	8F\	et	.	.	.	.	.
4D-X\	.	.	.	16B-\LL	sal-	.	.	.	.	.
.	.	.	.	16F\JJ	.	.	.	.	.	.
.	.	.	.	16B-\	-vu(m)	.	.	.	.	.
.	.	.	.	16A-\	me	.	.	.	.	.
8E-\L	.	.	.	8G\	fe-	.	4r	.	.	.
8C\J	.	.	.	8c\	-cit	.	.	.	.	.
4D-X\	7	.	.	8c\	dex-	.	8r	.	.	.
.	6	.	.	16B-\	-te-	.	16ff\	Do-	.	.
.	5	.	.	16A-\	-ra	.	16ff\	-mi-	.	.
!LO:LB:g=original	!	!	!	!	!	!	!	!	!	!
=29	=29	=29	=29	=29	=29	=29	=29	=29	=29	=29
2E-\	4	00r	00r	(4A-\	tu-	.	8b-\	-nus	1ryy	1ryy
.	.	.	.	.	.	.	8cc\	re-	.	.
.	3	.	.	4G\)	.	.	16dd-X\	-tri-	.	.
.	.	.	.	.	.	.	16dd-\	-bu-	.	.
.	.	.	.	.	.	.	16cc\	-et	.	.
.	.	.	.	.	.	.	16b-\	pro	.	.
4AA-/	.	.	.	4A-\	-a.	.	8cc\	me	.	.
.	.	.	.	.	.	.	16ee-\	Do-	.	.
.	.	.	.	.	.	.	16cc\	-mi-	.	.
4D-X/	.	.	.	4r	.	.	16ff,\	-ne	.	.
.	.	.	.	.	.	.	16ff\	mi-	.	.
.	.	.	.	.	.	.	16ee-\	-se-	.	.
.	.	.	.	.	.	.	16dd-X\	-ri-	.	.
=30	=30	=30	=30	=30	=30	=30	=30	=30	=30	=30
!	!	!	!	!LO:TX:a:t=1.	!	!	!	!	!	!
4C/	6	.	.	1r	.	.	8ee-\	-cor-	1ryy	1ryy
.	.	.	.	.	.	.	16dd-X\	-di-	.	.
.	.	.	.	.	.	.	16cc\	-a	.	.
8D-X/L	6	.	.	.	.	.	8b-\	tu-	.	.
8Dn/J	5	.	.	.	.	.	16a-\	-a	.	.
.	.	.	.	.	.	.	16a-\	in	.	.
4E-\	.	.	.	.	.	.	8.g/	ſae-	.	.
!	!	!	!	!	!	!	!LO:SIC:s:=:v:custose-	!	!	!
.	.	.	.	.	.	.	16f/	-cu-	.	.
!	!	!	!	!	!	!	!LO:LB:g=original	!	!	!
4C\	6	.	.	.	.	.	8e-/	-lum,	.	.
.	.	.	.	.	.	.	16a-\	o-	.	.
.	.	.	.	.	.	.	16g\	-pe-	.	.
=31	=31	=31	=31	=31	=31	=31	=31	=31	=31	=31
4.D/	6	.	.	4r	.	.	8f/	-ra	1ryy	1ryy
.	.	.	.	.	.	.	16b-\	ma-	.	.
.	.	.	.	.	.	.	16b-\	-nu-	.	.
!	!	!	!	!LO:LB:g=original	!	!	!	!	!	!
.	.	.	.	8F\	Glo-	.	16b-\	-um	.	.
.	.	.	.	.	.	.	16b-\	tu-	.	.
8BB-/	.	.	.	16F\	-ri-	.	16a-\	-a-	.	.
.	.	.	.	16F\	-a	.	16a-\	-rum	.	.
8E-\L	.	.	.	8E-\	Pat-	.	8g/	ne	.	.
8A-\J	.	.	.	16E-\	-ri,	.	16f/LL	de-	.	.
.	.	.	.	16E-\	et	.	16e-/JJ	.	.	.
!LO:TX:a:t=P:problem:mixed beam	!	!	!	!	!	!	!	!	!	!
8B-\L	.	.	.	8.D\	Fi-	.	8.f/	-spi-	.	.
8BB-/J	.	.	.	.	.	.	.	.	.	.
.	.	.	.	16D\	-li-	.	16e-/	-ci-	.	.
=32	=32	=32	=32	=32	=32	=32	=32	=32	=32	=32
4E-\	.	.	.	8E-\	-o,	.	4e-/	-as.	1ryy	1ryy
.	.	.	.	16G\	et	.	.	.	.	.
.	.	.	.	16G\	Spi-	.	.	.	.	.
8C\L	.	.	.	4.c\	-ri-	.	4r	.	.	.
8E-\J	.	.	.	.	.	.	.	.	.	.
8F\L	n	.	.	.	.	.	2r	.	.	.
8G\	.	.	.	16B-\	-tu-	.	.	.	.	.
.	.	.	.	16B-\	-i	.	.	.	.	.
8E-\	6 5	.	.	8B-\L	San-	.	.	.	.	.
8F\J	.	.	.	8An\J	.	.	.	.	.	.
!	!	!	!LO:TX:b:t=Volti Subito	!	!	!	!	!	!	!
!	!	!	!LO:PB:g=original	!	!	!	!	!	!	!
=33	=33	=33	=33	=33	=33	=33	=33	=33	=33	=33
4BB-/	.	4r	4r	4B-,\	-cto,	.	4r	.	1ryy	1ryy
!LO:TX:a:t=T&colon;	!	!	!	!	!	!	!	!	!	!
8B-\L	.	8dd\L	16r	8B-\	Si-	.	8dd\	Si-	.	.
.	.	.	16ff\LL	.	.	.	.	.	.	.
8B-\J	.	8dd\J	16bb-\	8B-\	-cut	.	8dd\	-cut	.	.
.	.	.	16ff\JJ	.	.	.	.	.	.	.
8B-\L	6 4	8ee-\L	16gg\LL	8B-\	e-	.	8ee-\	e-	.	.
.	.	.	16bb-\	.	.	.	.	.	.	.
8B-\	5 3	8dd\	16ff\	8B-\	-rat	.	8dd\	-rat	.	.
.	.	.	16bb-\JJ	.	.	.	.	.	.	.
8B-\	4 2	8dd\	16ee-\LL	8B-\	in	.	8cc\	in	.	.
.	.	.	16bb-\	.	.	.	.	.	.	.
!LO:SIC:s=8A-	!	!	!	!	!	!	!	!	!	!
[8An\J	x 6	8cc\J	16cc\	8A-\	prin-	.	8ff\	prin-	.	.
.	.	.	16ff\JJ	.	.	.	.	.	.	.
=34	=34	=34	=34	=34	=34	=34	=34	=34	=34	=34
8A\L]	4 2	8f/L	8.dd\L	8.A-\	-ci-	.	8.dd\	-ci-	1ryy	1ryy
!LO:SIC:o:s:=:v:brak znaku	!	!	!	!	!	!	!	!	!	!
8A-y\	.	16g/L	.	.	.	.	.	.	.	.
!	!	!	!	!	!	!	!LO:SIC:s:=:v:custosb-	!	!	!
.	.	16a-/JJ	16dd\Jk	16A-\	-pi-	.	16cc\	-pi-	.	.
!	!	!	!	!	!	!	!LO:LB:g=original	!	!	!
8G\	.	8b-/L	16ee-\LL	8G\	-o,	.	8b-\	-o,	.	.
.	.	.	16ff\J	.	.	.	.	.	.	.
8A-\J	.	8b-/J	8gg\J	8G\	et	.	8ee-\	et	.	.
8c\L	.	8ee-\L	8gg\L	8c,\	nu(n)c	.	8ee-\	nu(n)c,	.	.
!	!	!LO:TX:a:t=d	!	!	!	!	!	!	!	!
8B-\J	6	8dd\J	8gg\	8B-\	et	.	8dd\	et	.	.
!	!	!LO:TX:a:t=c	!	!	!	!	!	!	!	!
4A-\	7	4cc\	8gg\	4A-\	ſe(m)-	.	4cc\	ſem-	.	.
.	6	.	8ff\J	.	.	.	.	.	.	.
!LO:LB:g=original	!	!LO:LB:g=original	!	!	!	!	!	!	!	!
=35	=35	=35	=35	=35	=35	=35	=35	=35	=35	=35
4G\	n	8bn/L	8gg\L	8G\	-per,	.	8bn,\	-per,	1ryy	1ryy
.	.	8g/	8dd\	16G\	et	.	16b\	et	.	.
.	.	.	.	16G\	in	.	16b\	in	.	.
!	!	!	!	!LO:LB:g=original	!	!	!	!	!	!
8G\L	-	8a-/	8ee-\	8G\	ſae-	.	8cc\	ſae-	.	.
8G\J	4 2	8a-/J	8ee-\J	16G\	-cu-	.	16dd\	-cu-	.	.
.	.	.	.	16G\	-la	.	16ee-\	-la	.	.
8F\L	6	8g/L	8ff\L	8F\	ſae-	.	8dd\	ſae-	.	.
8F\	n	8g/J	8ee-\	8F\	-cu-	.	8cc\	-cu-	.	.
!	!	!LO:TX:a:t=P:problem:mixed beam	!	!	!	!	!	!	!	!
8F\	4 2	8g/L	8dd\	8F\	-lo-	.	8bn\	-lo-	.	.
8E-\J	6	8cc\J	8ee-\J	8E-\	-rum	.	8cc\	-rum	.	.
=36	=36	=36	=36	=36	=36	=36	=36	=36	=36	=36
!	!	!	!	!LO:TX:a:t=P:problem:mixed beam	!	!	!	!	!	!
8D\L	.	4.dd\	4.ff\	8D/L	A-	.	4.ff\	a-	1ryy	1ryy
8d\	.	.	.	8d\	.	.	.	.	.	.
8Bn\	6 5	.	.	8Bn\	.	.	.	.	.	.
*	*	*	*Xtuplet	*	*	*	*Xtuplet	*	*	*
!	!	!LO:N:vis=8	!	!	!	!	!	!	!	!
8G\J	.	16cc/LL	24gg\LL	8G\J	.	.	24gg\LL	.	.	.
.	.	.	24ee-\	.	.	.	24ee-\	.	.	.
!	!	!LO:N:vis=8	!	!	!	!	!	!	!	!
.	.	16bn/JJ	.	.	.	.	.	.	.	.
.	.	.	24dd\JJ	.	.	.	24dd\JJ	.	.	.
!LO:TX:a:t=P:problem:mixed beam	!	!	!	!LO:TX:a:t=P:problem:mixed beam	!	!	!	!	!	!
8C/L	.	4.cc\	4.ee-\	8C/L	.	.	4.ee-\	.	.	.
8c\	.	.	.	8c\	.	.	.	.	.	.
!	!	!	!	!LO:SIC:s=8An	!	!	!	!	!	!
8An\	6 5	.	.	8A-\	.	.	.	.	.	.
8F\J	.	16b-X/LL	24ff\LL	8F\J	.	.	24ff\LL	.	.	.
.	.	.	24dd\	.	.	.	24dd\	.	.	.
!	!	!LO:SIC:s=16an	!	!	!	!	!	!	!	!
.	.	16a-/JJ	.	.	.	.	.	.	.	.
.	.	.	24cc\JJ	.	.	.	24cc\JJ	.	.	.
!	!	!	!LO:LB:g=original	!	!	!	!	!	!	!
=37	=37	=37	=37	=37	=37	=37	=37	=37	=37	=37
!LO:TX:a:t=P:problem:mixed beam	!	!	!	!	!	!	!	!	!	!
8BB-/L	x -	4.b-/	4.dd-X\	8B-\L	.	.	4.dd-X\	.	1ryy	1ryy
8B-X\	.	.	.	8A-\	.	.	.	.	.	.
8G\	6 5	.	.	8G\	.	.	.	.	.	.
8E-\J	.	16a-/LL	24ee-\LL	8E-\J	.	.	24ee-\LL	.	.	.
.	.	.	24cc\	.	.	.	24cc\	.	.	.
.	.	16g/JJ	.	.	.	.	.	.	.	.
!	!	!	!	!	!	!	!LO:SIC:s:=:v:custoscc	!	!	!
.	.	.	24b-\JJ	.	.	.	24b-\JJ	.	.	.
!	!	!	!	!	!	!	!LO:LB:g=original	!	!	!
4AA-/	x 3	4a-/	8cc\L	4A-\	.	.	8cc\L	.	.	.
.	x 4	.	8ddn\J	.	.	.	8ddn\J	.	.	.
8GG/L	x 6	8b-/L	4ee-\	8G\L	-men	.	[<4ee-\	.	.	.
!LO:SIC:s=8An	!	!	!	!	!	!	!	!	!	!
8AA-/J	.	8cc/J	.	8An\J	.	.	.	.	.	.
=38	=38	=38	=38	=38	=38	=38	=38	=38	=38	=38
*	*	*	*	*2\right	*	*	*	*	*	*
[>1BB-/|	.	8f/L	8dd\	(2B-\	a-	.	8ee-\]	.	1ryy	1ryy
.	.	8f/	4.gg\	.	.	.	8dd,\	-men,	.	.
.	.	8b-/	.	.	.	.	4.gg\	a-	.	.
.	.	8b-/J	.	.	.	.	.	.	.	.
.	.	4.cc\	16ff\LL	2A-X\)	.	.	.	.	.	.
.	.	.	16ee-\JJ	.	.	.	.	.	.	.
.	.	.	8ryy	.	.	.	16ff\LL	.	.	.
.	.	.	.	.	.	.	16ee-\JJ	.	.	.
.	.	.	[4ff\	.	.	.	[<4ff\	.	.	.
.	.	16b-/LL	.	.	.	.	.	.	.	.
.	.	16a-/JJ	.	.	.	.	.	.	.	.
=39	=39	=39	=39	=39	=39	=39	=39	=39	=39	=39
1BB-/]|	.	4.b-/	8ff\L]	4.G\	-men	.	8ff\]	.	1ryy	1ryy
.	.	.	8b-\J	.	.	.	8b-\	-men,	.	.
*	*	*	*	*	*	*	*2\right	*	*	*
.	.	.	2ee-\	.	.	.	2ee-\	a-	.	.
.	.	8cc\	.	8A-,\	.	.	.	.	.	.
.	.	4f/	.	[2B-\	a-	.	.	.	.	.
.	.	4g/	8dd\L	.	.	.	8dd\L	.	.	.
.	.	.	8cc\J	.	.	.	8cc\J	.	.	.
=40	=40	=40	=40	=40	=40	=40	=40	=40	=40	=40
1E-\	.	2f/	2dd\	2B-\]	.	.	2dd\	.	1ryy	1ryy
.	.	2g/	2ee-\	2E-\	-men	.	2ee-\	-men.	.	.
==	==	==	==	==	==	==	==	==	==	==
*-	*-	*-	*-	*-	*-	*-	*-	*-	*-	*-
!!!system-decoration: [s1,s2][(s3,s4)][(s5,s6)]s7
!!!RDF**kern: > = above
!!!RDF**kern: < = below
!!!EED: Leszek Kubiak
!!!EST: 2021-01-02
!!!ENC:Kamil Watkowski
!!!END:2020-06-25
!!!RDF**kern: | = vertical stroke
